packages/admin/admin-icons/icons/add.svg

<svg xmlns="http://www.w3.org/2000/svg" width="16" height="16" viewBox="0 0 16 16"><path fill="#242424" fill-rule="evenodd" d="M8,0 C10.9296247,0 13.581254,1.58861071 14.9858712,4.09882317 C15.1207147,4.33980414 15.0346734,4.64447011 14.7936924,4.77931368 C14.5527114,4.91415724 14.2480455,4.82811588 14.1132019,4.58713492 C12.8836552,2.3897936 10.5638815,1 8,1 C4.13400675,1 1,4.13400675 1,8 C1,11.8659932 4.13400675,15 8,15 C11.8659932,15 15,11.8659932 15,8 C15,7.72385763 15.2238576,7.5 15.5,7.5 C15.7761424,7.5 16,7.72385763 16,8 C16,12.418278 12.418278,16 8,16 C3.581722,16 0,12.418278 0,8 C0,3.581722 3.581722,0 8,0 Z M8,3 C8.27614237,3 8.5,3.22385763 8.5,3.5 L8.5,7.499 L12.5,7.5 C12.7761424,7.5 13,7.72385763 13,8 C13,8.27614237 12.7761424,8.5 12.5,8.5 L8.5,8.499 L8.5,12.5 C8.5,12.7761424 8.27614237,13 8,13 C7.72385763,13 7.5,12.7761424 7.5,12.5 L7.5,8.499 L3.5,8.5 C3.22385763,8.5 3,8.27614237 3,8 C3,7.72385763 3.22385763,7.5 3.5,7.5 L7.5,7.499 L7.5,3.5 C7.5,3.22385763 7.72385763,3 8,3 Z"/></svg>

<svg width="16" height="16" fill="none" viewBox="0 0 16 16">
  <path fill="#242424" d="M14.986 4.099A8 8 0 1 0 16 8a.5.5 0 0 0-1 0 7 7 0 1 1-.887-3.413.5.5 0 1 0 .873-.488Z M8 3a.5.5 0 0 1 .5.5v4h4a.5.5 0 0 1 0 1h-4v4a.5.5 0 0 1-1 0v-4h-4a.5.5 0 0 1 0-1h4v-4A.5.5 0 0 1 8 3Z"/>
</svg>
